assets/images/specializations/backend-developer.svg

<?xml version="1.0" encoding="UTF-8" standalone="no"?>
<svg
   width="235"
   height="64"
   viewBox="0 0 235 64"
   fill="none"
   version="1.1"
   id="svg359"
   sodipodi:docname="backend-developer.svg"
   inkscape:version="1.2.2 (b0a84865, 2022-12-01)"
   xmlns:inkscape="http://www.inkscape.org/namespaces/inkscape"
   xmlns:sodipodi="http://sodipodi.sourceforge.net/DTD/sodipodi-0.dtd"
   xmlns="http://www.w3.org/2000/svg"
   xmlns:svg="http://www.w3.org/2000/svg">
  <defs
     id="defs363" />
  <sodipodi:namedview
     id="namedview361"
     pagecolor="#ffffff"
     bordercolor="#000000"
     borderopacity="0.25"
     inkscape:showpageshadow="2"
     inkscape:pageopacity="0.0"
     inkscape:pagecheckerboard="0"
     inkscape:deskcolor="#d1d1d1"
     showgrid="false"
     inkscape:zoom="3.6875"
     inkscape:cx="103.72881"
     inkscape:cy="34.305085"
     inkscape:window-width="2011"
     inkscape:window-height="1101"
     inkscape:window-x="0"
     inkscape:window-y="25"
     inkscape:window-maximized="0"
     inkscape:current-layer="svg359" />
  <path
     fill-rule="evenodd"
     clip-rule="evenodd"
     d="M41.6 0C42.4487 0 43.2626 0.337142 43.8627 0.937258C44.4629 1.53737 44.8 2.35131 44.8 3.2V6.4H48C50.5461 6.4 52.9879 7.41143 54.7882 9.21178C56.5886 11.0121 57.6 13.4539 57.6 16V19.2H60.8C61.6487 19.2 62.4626 19.5371 63.0627 20.1373C63.6629 20.7374 64 21.5513 64 22.4C64 23.2487 63.6629 24.0626 63.0627 24.6627C62.4626 25.2629 61.6487 25.6 60.8 25.6H57.6V38.4H60.8C61.6487 38.4 62.4626 38.7371 63.0627 39.3373C63.6629 39.9374 64 40.7513 64 41.6C64 42.4487 63.6629 43.2626 63.0627 43.8627C62.4626 44.4629 61.6487 44.8 60.8 44.8H57.6V48C57.6 50.5461 56.5886 52.9879 54.7882 54.7882C52.9879 56.5886 50.5461 57.6 48 57.6H44.8V60.8C44.8 61.6487 44.4629 62.4626 43.8627 63.0627C43.2626 63.6629 42.4487 64 41.6 64C40.7513 64 39.9374 63.6629 39.3373 63.0627C38.7371 62.4626 38.4 61.6487 38.4 60.8V57.6H25.6V60.8C25.6 61.6487 25.2629 62.4626 24.6627 63.0627C24.0626 63.6629 23.2487 64 22.4 64C21.5513 64 20.7374 63.6629 20.1373 63.0627C19.5371 62.4626 19.2 61.6487 19.2 60.8V57.6H16C13.4539 57.6 11.0121 56.5886 9.21178 54.7882C7.41143 52.9879 6.4 50.5461 6.4 48V44.8H3.2C2.35131 44.8 1.53737 44.4629 0.937258 43.8627C0.337142 43.2626 0 42.4487 0 41.6C0 40.7513 0.337142 39.9374 0.937258 39.3373C1.53737 38.7371 2.35131 38.4 3.2 38.4H6.4V25.6H3.2C2.35131 25.6 1.53737 25.2629 0.937258 24.6627C0.337142 24.0626 0 23.2487 0 22.4C0 21.5513 0.337142 20.7374 0.937258 20.1373C1.53737 19.5371 2.35131 19.2 3.2 19.2H6.4V16C6.4 13.4539 7.41143 11.0121 9.21178 9.21178C11.0121 7.41143 13.4539 6.4 16 6.4H19.2V3.2C19.2 2.35131 19.5371 1.53737 20.1373 0.937258C20.7374 0.337142 21.5513 0 22.4 0C23.2487 0 24.0626 0.337142 24.6627 0.937258C25.2629 1.53737 25.6 2.35131 25.6 3.2V6.4H38.4V3.2C38.4 2.35131 38.7371 1.53737 39.3373 0.937258C39.9374 0.337142 40.7513 0 41.6 0ZM48 12.8H16C15.1513 12.8 14.3374 13.1371 13.7373 13.7373C13.1371 14.3374 12.8 15.1513 12.8 16V48C12.8 48.8487 13.1371 49.6626 13.7373 50.2627C14.3374 50.8629 15.1513 51.2 16 51.2H48C48.8487 51.2 49.6626 50.8629 50.2627 50.2627C50.8629 49.6626 51.2 48.8487 51.2 48V16C51.2 15.1513 50.8629 14.3374 50.2627 13.7373C49.6626 13.1371 48.8487 12.8 48 12.8ZM38.4 19.2C40.0146 19.1995 41.5698 19.8093 42.7538 20.9072C43.9377 22.0051 44.6629 23.5099 44.784 25.12L44.8 25.6V38.4C44.8005 40.0146 44.1907 41.5698 43.0928 42.7538C41.9949 43.9377 40.4901 44.6629 38.88 44.784L38.4 44.8H25.6C23.9854 44.8005 22.4302 44.1907 21.2462 43.0928C20.0623 41.9949 19.3371 40.4901 19.216 38.88L19.2 38.4V25.6C19.1995 23.9854 19.8093 22.4302 20.9072 21.2462C22.0051 20.0623 23.5099 19.3371 25.12 19.216L25.6 19.2H38.4ZM38.4 25.6H25.6V38.4H38.4V25.6Z"
     fill="#3272B8"
     id="path355"
     inkscape:export-filename="backend-developer.webp"
     inkscape:export-xdpi="96"
     inkscape:export-ydpi="96" />
  <path
     d="m 81.5078,26.5781 h 3.3906 c 1.573,0 2.7084,0.2292 3.4063,0.6875 0.7031,0.4584 1.0547,1.1823 1.0547,2.1719 0,0.6667 -0.1719,1.2214 -0.5156,1.6641 -0.3438,0.4427 -0.8386,0.7213 -1.4844,0.8359 v 0.0781 c 0.8021,0.1511 1.3906,0.4505 1.7656,0.8985 0.3802,0.4427 0.5703,1.0442 0.5703,1.8047 0,1.026 -0.3594,1.8307 -1.0781,2.414 C 87.9036,37.7109 86.9089,38 85.6328,38 h -4.125 z m 1.8672,4.7188 h 1.7969 c 0.7812,0 1.3515,-0.1224 1.7109,-0.3672 0.3594,-0.25 0.5391,-0.6719 0.5391,-1.2656 0,-0.5365 -0.1953,-0.9245 -0.586,-1.1641 -0.3854,-0.2396 -1,-0.3594 -1.8437,-0.3594 H 83.375 Z m 0,1.5156 v 3.6172 h 1.9844 c 0.7812,0 1.3698,-0.1485 1.7656,-0.4453 0.401,-0.3021 0.6016,-0.7761 0.6016,-1.4219 0,-0.5937 -0.2032,-1.0339 -0.6094,-1.3203 -0.4063,-0.2865 -1.0234,-0.4297 -1.8516,-0.4297 z M 97.2812,38 96.9141,36.7969 h -0.0625 c -0.4167,0.526 -0.836,0.8854 -1.2578,1.0781 -0.4219,0.1875 -0.9636,0.2812 -1.625,0.2812 -0.849,0 -1.5131,-0.2291 -1.9922,-0.6874 -0.474,-0.4584 -0.711,-1.1068 -0.711,-1.9454 0,-0.8906 0.3308,-1.5625 0.9922,-2.0156 0.6615,-0.4531 1.6693,-0.7005 3.0234,-0.7422 l 1.4922,-0.0468 v -0.461 c 0,-0.5521 -0.1302,-0.9635 -0.3906,-1.2344 -0.2552,-0.276 -0.6536,-0.414 -1.1953,-0.414 -0.4427,0 -0.8672,0.0651 -1.2734,0.1953 -0.4063,0.1302 -0.7969,0.2838 -1.1719,0.4609 l -0.5938,-1.3125 c 0.4688,-0.2448 0.9818,-0.4297 1.5391,-0.5547 0.5573,-0.1302 1.0833,-0.1953 1.5781,-0.1953 1.099,0 1.9271,0.2396 2.4844,0.7188 0.5625,0.4791 0.8438,1.2317 0.8438,2.2578 V 38 Z m -2.7343,-1.25 c 0.6666,0 1.2005,-0.1849 1.6015,-0.5547 0.4063,-0.375 0.6094,-0.8984 0.6094,-1.5703 v -0.75 l -1.1094,0.0469 c -0.8645,0.0312 -1.4948,0.1771 -1.8906,0.4375 -0.3906,0.2552 -0.5859,0.6484 -0.5859,1.1797 0,0.3854 0.1146,0.6849 0.3437,0.8984 0.2292,0.2083 0.5729,0.3125 1.0313,0.3125 z m 10.0941,1.4062 c -1.308,0 -2.302,-0.3802 -2.985,-1.1406 -0.677,-0.7656 -1.015,-1.862 -1.015,-3.289 0,-1.4532 0.354,-2.5704 1.062,-3.3516 0.714,-0.7812 1.742,-1.1719 3.086,-1.1719 0.912,0 1.732,0.1693 2.461,0.5078 l -0.555,1.4766 c -0.776,-0.3021 -1.416,-0.4531 -1.922,-0.4531 -1.494,0 -2.242,0.9922 -2.242,2.9765 0,0.9688 0.185,1.698 0.555,2.1875 0.375,0.4844 0.922,0.7266 1.641,0.7266 0.817,0 1.591,-0.2031 2.32,-0.6094 v 1.6016 c -0.328,0.1927 -0.68,0.3307 -1.055,0.414 -0.37,0.0834 -0.82,0.125 -1.351,0.125 z m 6.211,-4.7187 1.039,-1.2969 2.609,-2.7812 h 2.117 l -3.476,3.7109 3.695,4.9297 h -2.156 l -2.774,-3.7891 -1.008,0.8282 V 38 h -1.82 V 25.8438 h 1.82 v 5.9296 l -0.093,1.6641 z m 6.632,1.0547 v -1.5625 h 4.016 v 1.5625 z M 130.047,38 h -6.461 V 26.5781 h 6.461 v 1.5781 h -4.594 v 3.1094 h 4.305 v 1.5625 h -4.305 v 3.586 h 4.594 z m 9.883,0 h -1.844 v -5.3125 c 0,-0.6667 -0.135,-1.1641 -0.406,-1.4922 -0.266,-0.3281 -0.69,-0.4922 -1.274,-0.4922 -0.776,0 -1.344,0.2292 -1.703,0.6875 -0.359,0.4584 -0.539,1.2266 -0.539,2.3047 V 38 h -1.836 v -8.6406 h 1.438 l 0.257,1.1328 h 0.094 c 0.261,-0.4115 0.63,-0.7292 1.11,-0.9531 0.479,-0.224 1.01,-0.336 1.593,-0.336 2.073,0 3.11,1.0547 3.11,3.1641 z m 5.468,0.1562 c -1.078,0 -1.919,-0.3906 -2.523,-1.1718 -0.604,-0.7813 -0.906,-1.8776 -0.906,-3.2891 0,-1.4167 0.304,-2.5182 0.914,-3.3047 0.614,-0.7916 1.463,-1.1875 2.547,-1.1875 1.135,0 2,0.4193 2.593,1.2578 h 0.094 c -0.088,-0.6198 -0.133,-1.1093 -0.133,-1.4687 v -3.1484 h 1.844 V 38 h -1.437 l -0.321,-1.1328 h -0.086 c -0.588,0.8594 -1.45,1.289 -2.586,1.289 z m 0.493,-1.4843 c 0.755,0 1.304,-0.211 1.648,-0.6328 0.344,-0.4271 0.521,-1.1172 0.531,-2.0703 v -0.2579 c 0,-1.0885 -0.177,-1.8619 -0.531,-2.3203 -0.354,-0.4583 -0.909,-0.6875 -1.664,-0.6875 -0.646,0 -1.143,0.263 -1.492,0.7891 -0.349,0.5208 -0.524,1.2656 -0.524,2.2344 0,0.9583 0.17,1.6901 0.508,2.1953 0.339,0.5 0.847,0.75 1.524,0.75 z"
     fill="#141414"
     id="path357"
     sodipodi:nodetypes="cscsccccscscccscscsccccscscscccccscscccscsccccscsccscscccscsscscsccsscscccsccccccccccccccccccccccccccccccccccccscscscccccccsscscscsccsccccccssccscscscs" />
</svg>

<svg width="235" height="64" viewBox="0 0 235 64" fill="none" xmlns="http://www.w3.org/2000/svg">
<path fill-rule="evenodd" clip-rule="evenodd" d="M41.6 0C42.4487 0 43.2626 0.337142 43.8627 0.937258C44.4629 1.53737 44.8 2.35131 44.8 3.2V6.4H48C50.5461 6.4 52.9879 7.41143 54.7882 9.21178C56.5886 11.0121 57.6 13.4539 57.6 16V19.2H60.8C61.6487 19.2 62.4626 19.5371 63.0627 20.1373C63.6629 20.7374 64 21.5513 64 22.4C64 23.2487 63.6629 24.0626 63.0627 24.6627C62.4626 25.2629 61.6487 25.6 60.8 25.6H57.6V38.4H60.8C61.6487 38.4 62.4626 38.7371 63.0627 39.3373C63.6629 39.9374 64 40.7513 64 41.6C64 42.4487 63.6629 43.2626 63.0627 43.8627C62.4626 44.4629 61.6487 44.8 60.8 44.8H57.6V48C57.6 50.5461 56.5886 52.9879 54.7882 54.7882C52.9879 56.5886 50.5461 57.6 48 57.6H44.8V60.8C44.8 61.6487 44.4629 62.4626 43.8627 63.0627C43.2626 63.6629 42.4487 64 41.6 64C40.7513 64 39.9374 63.6629 39.3373 63.0627C38.7371 62.4626 38.4 61.6487 38.4 60.8V57.6H25.6V60.8C25.6 61.6487 25.2629 62.4626 24.6627 63.0627C24.0626 63.6629 23.2487 64 22.4 64C21.5513 64 20.7374 63.6629 20.1373 63.0627C19.5371 62.4626 19.2 61.6487 19.2 60.8V57.6H16C13.4539 57.6 11.0121 56.5886 9.21178 54.7882C7.41143 52.9879 6.4 50.5461 6.4 48V44.8H3.2C2.35131 44.8 1.53737 44.4629 0.937258 43.8627C0.337142 43.2626 0 42.4487 0 41.6C0 40.7513 0.337142 39.9374 0.937258 39.3373C1.53737 38.7371 2.35131 38.4 3.2 38.4H6.4V25.6H3.2C2.35131 25.6 1.53737 25.2629 0.937258 24.6627C0.337142 24.0626 0 23.2487 0 22.4C0 21.5513 0.337142 20.7374 0.937258 20.1373C1.53737 19.5371 2.35131 19.2 3.2 19.2H6.4V16C6.4 13.4539 7.41143 11.0121 9.21178 9.21178C11.0121 7.41143 13.4539 6.4 16 6.4H19.2V3.2C19.2 2.35131 19.5371 1.53737 20.1373 0.937258C20.7374 0.337142 21.5513 0 22.4 0C23.2487 0 24.0626 0.337142 24.6627 0.937258C25.2629 1.53737 25.6 2.35131 25.6 3.2V6.4H38.4V3.2C38.4 2.35131 38.7371 1.53737 39.3373 0.937258C39.9374 0.337142 40.7513 0 41.6 0ZM48 12.8H16C15.1513 12.8 14.3374 13.1371 13.7373 13.7373C13.1371 14.3374 12.8 15.1513 12.8 16V48C12.8 48.8487 13.1371 49.6626 13.7373 50.2627C14.3374 50.8629 15.1513 51.2 16 51.2H48C48.8487 51.2 49.6626 50.8629 50.2627 50.2627C50.8629 49.6626 51.2 48.8487 51.2 48V16C51.2 15.1513 50.8629 14.3374 50.2627 13.7373C49.6626 13.1371 48.8487 12.8 48 12.8ZM38.4 19.2C40.0146 19.1995 41.5698 19.8093 42.7538 20.9072C43.9377 22.0051 44.6629 23.5099 44.784 25.12L44.8 25.6V38.4C44.8005 40.0146 44.1907 41.5698 43.0928 42.7538C41.9949 43.9377 40.4901 44.6629 38.88 44.784L38.4 44.8H25.6C23.9854 44.8005 22.4302 44.1907 21.2462 43.0928C20.0623 41.9949 19.3371 40.4901 19.216 38.88L19.2 38.4V25.6C19.1995 23.9854 19.8093 22.4302 20.9072 21.2462C22.0051 20.0623 23.5099 19.3371 25.12 19.216L25.6 19.2H38.4ZM38.4 25.6H25.6V38.4H38.4V25.6Z" fill="#3272B8"/>
<path d="M81.5078 26.5781H84.8984C86.4714 26.5781 87.6068 26.8073 88.3047 27.2656C89.0078 27.724 89.3594 28.4479 89.3594 29.4375C89.3594 30.1042 89.1875 30.6589 88.8438 31.1016C88.5 31.5443 88.0052 31.8229 87.3594 31.9375V32.0156C88.1615 32.1667 88.75 32.4661 89.125 32.9141C89.5052 33.3568 89.6953 33.9583 89.6953 34.7188C89.6953 35.7448 89.3359 36.5495 88.6172 37.1328C87.9036 37.7109 86.9089 38 85.6328 38H81.5078V26.5781ZM83.375 31.2969H85.1719C85.9531 31.2969 86.5234 31.1745 86.8828 30.9297C87.2422 30.6797 87.4219 30.2578 87.4219 29.6641C87.4219 29.1276 87.2266 28.7396 86.8359 28.5C86.4505 28.2604 85.8359 28.1406 84.9922 28.1406H83.375V31.2969ZM83.375 32.8125V36.4297H85.3594C86.1406 36.4297 86.7292 36.2812 87.125 35.9844C87.526 35.6823 87.7266 35.2083 87.7266 34.5625C87.7266 33.9688 87.5234 33.5286 87.1172 33.2422C86.7109 32.9557 86.0938 32.8125 85.2656 32.8125H83.375ZM97.2812 38L96.9141 36.7969H96.8516C96.4349 37.3229 96.0156 37.6823 95.5938 37.875C95.1719 38.0625 94.6302 38.1562 93.9688 38.1562C93.1198 38.1562 92.4557 37.9271 91.9766 37.4688C91.5026 37.0104 91.2656 36.362 91.2656 35.5234C91.2656 34.6328 91.5964 33.9609 92.2578 33.5078C92.9193 33.0547 93.9271 32.8073 95.2812 32.7656L96.7734 32.7188V32.2578C96.7734 31.7057 96.6432 31.2943 96.3828 31.0234C96.1276 30.7474 95.7292 30.6094 95.1875 30.6094C94.7448 30.6094 94.3203 30.6745 93.9141 30.8047C93.5078 30.9349 93.1172 31.0885 92.7422 31.2656L92.1484 29.9531C92.6172 29.7083 93.1302 29.5234 93.6875 29.3984C94.2448 29.2682 94.7708 29.2031 95.2656 29.2031C96.3646 29.2031 97.1927 29.4427 97.75 29.9219C98.3125 30.401 98.5938 31.1536 98.5938 32.1797V38H97.2812ZM94.5469 36.75C95.2135 36.75 95.7474 36.5651 96.1484 36.1953C96.5547 35.8203 96.7578 35.2969 96.7578 34.625V33.875L95.6484 33.9219C94.7839 33.9531 94.1536 34.099 93.7578 34.3594C93.3672 34.6146 93.1719 35.0078 93.1719 35.5391C93.1719 35.9245 93.2865 36.224 93.5156 36.4375C93.7448 36.6458 94.0885 36.75 94.5469 36.75ZM104.641 38.1562C103.333 38.1562 102.339 37.776 101.656 37.0156C100.979 36.25 100.641 35.1536 100.641 33.7266C100.641 32.2734 100.995 31.1562 101.703 30.375C102.417 29.5938 103.445 29.2031 104.789 29.2031C105.701 29.2031 106.521 29.3724 107.25 29.7109L106.695 31.1875C105.919 30.8854 105.279 30.7344 104.773 30.7344C103.279 30.7344 102.531 31.7266 102.531 33.7109C102.531 34.6797 102.716 35.4089 103.086 35.8984C103.461 36.3828 104.008 36.625 104.727 36.625C105.544 36.625 106.318 36.4219 107.047 36.0156V37.6172C106.719 37.8099 106.367 37.9479 105.992 38.0312C105.622 38.1146 105.172 38.1562 104.641 38.1562ZM110.852 33.4375L111.891 32.1406L114.5 29.3594H116.617L113.141 33.0703L116.836 38H114.68L111.906 34.2109L110.898 35.0391V38H109.078V25.8438H110.898V31.7734L110.805 33.4375H110.852ZM117.484 34.4922V32.9297H121.5V34.4922H117.484ZM130.047 38H123.586V26.5781H130.047V28.1562H125.453V31.2656H129.758V32.8281H125.453V36.4141H130.047V38ZM139.93 38H138.086V32.6875C138.086 32.0208 137.951 31.5234 137.68 31.1953C137.414 30.8672 136.99 30.7031 136.406 30.7031C135.63 30.7031 135.062 30.9323 134.703 31.3906C134.344 31.849 134.164 32.6172 134.164 33.6953V38H132.328V29.3594H133.766L134.023 30.4922H134.117C134.378 30.0807 134.747 29.763 135.227 29.5391C135.706 29.3151 136.237 29.2031 136.82 29.2031C138.893 29.2031 139.93 30.2578 139.93 32.3672V38ZM145.398 38.1562C144.32 38.1562 143.479 37.7656 142.875 36.9844C142.271 36.2031 141.969 35.1068 141.969 33.6953C141.969 32.2786 142.273 31.1771 142.883 30.3906C143.497 29.599 144.346 29.2031 145.43 29.2031C146.565 29.2031 147.43 29.6224 148.023 30.4609H148.117C148.029 29.8411 147.984 29.3516 147.984 28.9922V25.8438H149.828V38H148.391L148.07 36.8672H147.984C147.396 37.7266 146.534 38.1562 145.398 38.1562ZM145.891 36.6719C146.646 36.6719 147.195 36.4609 147.539 36.0391C147.883 35.612 148.06 34.9219 148.07 33.9688V33.7109C148.07 32.6224 147.893 31.849 147.539 31.3906C147.185 30.9323 146.63 30.7031 145.875 30.7031C145.229 30.7031 144.732 30.9661 144.383 31.4922C144.034 32.013 143.859 32.7578 143.859 33.7266C143.859 34.6849 144.029 35.4167 144.367 35.9219C144.706 36.4219 145.214 36.6719 145.891 36.6719ZM166.094 32.1797C166.094 34.0651 165.57 35.5078 164.523 36.5078C163.477 37.5026 161.969 38 160 38H156.805V26.5781H160.336C162.154 26.5781 163.568 27.0677 164.578 28.0469C165.589 29.026 166.094 30.4036 166.094 32.1797ZM164.125 32.2422C164.125 29.5078 162.846 28.1406 160.289 28.1406H158.672V36.4297H160C162.75 36.4297 164.125 35.0339 164.125 32.2422ZM172.133 38.1562C170.789 38.1562 169.737 37.7656 168.977 36.9844C168.221 36.1979 167.844 35.1172 167.844 33.7422C167.844 32.3307 168.195 31.2214 168.898 30.4141C169.602 29.6068 170.568 29.2031 171.797 29.2031C172.938 29.2031 173.839 29.5495 174.5 30.2422C175.161 30.9349 175.492 31.888 175.492 33.1016V34.0938H169.734C169.76 34.9323 169.987 35.5781 170.414 36.0312C170.841 36.4792 171.443 36.7031 172.219 36.7031C172.729 36.7031 173.203 36.6562 173.641 36.5625C174.083 36.4635 174.557 36.3021 175.062 36.0781V37.5703C174.615 37.7839 174.161 37.9349 173.703 38.0234C173.245 38.112 172.721 38.1562 172.133 38.1562ZM171.797 30.5938C171.214 30.5938 170.745 30.7786 170.391 31.1484C170.042 31.5182 169.833 32.0573 169.766 32.7656H173.688C173.677 32.0521 173.505 31.513 173.172 31.1484C172.839 30.7786 172.38 30.5938 171.797 30.5938ZM179.547 38L176.266 29.3594H178.203L179.961 34.3828C180.263 35.2266 180.445 35.9089 180.508 36.4297H180.57C180.617 36.0547 180.799 35.3724 181.117 34.3828L182.875 29.3594H184.828L181.531 38H179.547ZM189.914 38.1562C188.57 38.1562 187.518 37.7656 186.758 36.9844C186.003 36.1979 185.625 35.1172 185.625 33.7422C185.625 32.3307 185.977 31.2214 186.68 30.4141C187.383 29.6068 188.349 29.2031 189.578 29.2031C190.719 29.2031 191.62 29.5495 192.281 30.2422C192.943 30.9349 193.273 31.888 193.273 33.1016V34.0938H187.516C187.542 34.9323 187.768 35.5781 188.195 36.0312C188.622 36.4792 189.224 36.7031 190 36.7031C190.51 36.7031 190.984 36.6562 191.422 36.5625C191.865 36.4635 192.339 36.3021 192.844 36.0781V37.5703C192.396 37.7839 191.943 37.9349 191.484 38.0234C191.026 38.112 190.503 38.1562 189.914 38.1562ZM189.578 30.5938C188.995 30.5938 188.526 30.7786 188.172 31.1484C187.823 31.5182 187.615 32.0573 187.547 32.7656H191.469C191.458 32.0521 191.286 31.513 190.953 31.1484C190.62 30.7786 190.161 30.5938 189.578 30.5938ZM197.195 38H195.359V25.8438H197.195V38ZM207.492 33.6641C207.492 35.0755 207.13 36.1771 206.406 36.9688C205.682 37.7604 204.674 38.1562 203.383 38.1562C202.576 38.1562 201.862 37.974 201.242 37.6094C200.622 37.2448 200.146 36.7214 199.812 36.0391C199.479 35.3568 199.312 34.5651 199.312 33.6641C199.312 32.263 199.672 31.1693 200.391 30.3828C201.109 29.5964 202.122 29.2031 203.43 29.2031C204.68 29.2031 205.669 29.6068 206.398 30.4141C207.128 31.2161 207.492 32.2995 207.492 33.6641ZM201.203 33.6641C201.203 35.6589 201.94 36.6562 203.414 36.6562C204.872 36.6562 205.602 35.6589 205.602 33.6641C205.602 31.6901 204.867 30.7031 203.398 30.7031C202.628 30.7031 202.068 30.9583 201.719 31.4688C201.375 31.9792 201.203 32.7109 201.203 33.6641ZM213.992 38.1562C212.898 38.1562 212.049 37.763 211.445 36.9766H211.336C211.409 37.7057 211.445 38.1484 211.445 38.3047V41.8438H209.609V29.3594H211.094C211.135 29.5208 211.221 29.9062 211.352 30.5156H211.445C212.018 29.6406 212.878 29.2031 214.023 29.2031C215.102 29.2031 215.94 29.5938 216.539 30.375C217.143 31.1562 217.445 32.2526 217.445 33.6641C217.445 35.0755 217.138 36.1771 216.523 36.9688C215.914 37.7604 215.07 38.1562 213.992 38.1562ZM213.547 30.7031C212.818 30.7031 212.284 30.9167 211.945 31.3438C211.612 31.7708 211.445 32.4531 211.445 33.3906V33.6641C211.445 34.7161 211.612 35.4792 211.945 35.9531C212.279 36.4219 212.823 36.6562 213.578 36.6562C214.214 36.6562 214.703 36.3958 215.047 35.875C215.391 35.3542 215.562 34.612 215.562 33.6484C215.562 32.6797 215.391 31.9479 215.047 31.4531C214.708 30.9531 214.208 30.7031 213.547 30.7031ZM223.352 38.1562C222.008 38.1562 220.956 37.7656 220.195 36.9844C219.44 36.1979 219.062 35.1172 219.062 33.7422C219.062 32.3307 219.414 31.2214 220.117 30.4141C220.82 29.6068 221.786 29.2031 223.016 29.2031C224.156 29.2031 225.057 29.5495 225.719 30.2422C226.38 30.9349 226.711 31.888 226.711 33.1016V34.0938H220.953C220.979 34.9323 221.206 35.5781 221.633 36.0312C222.06 36.4792 222.661 36.7031 223.438 36.7031C223.948 36.7031 224.422 36.6562 224.859 36.5625C225.302 36.4635 225.776 36.3021 226.281 36.0781V37.5703C225.833 37.7839 225.38 37.9349 224.922 38.0234C224.464 38.112 223.94 38.1562 223.352 38.1562ZM223.016 30.5938C222.432 30.5938 221.964 30.7786 221.609 31.1484C221.26 31.5182 221.052 32.0573 220.984 32.7656H224.906C224.896 32.0521 224.724 31.513 224.391 31.1484C224.057 30.7786 223.599 30.5938 223.016 30.5938ZM233.18 29.2031C233.549 29.2031 233.854 29.2292 234.094 29.2812L233.914 30.9922C233.654 30.9297 233.383 30.8984 233.102 30.8984C232.367 30.8984 231.771 31.138 231.312 31.6172C230.859 32.0964 230.633 32.7188 230.633 33.4844V38H228.797V29.3594H230.234L230.477 30.8828H230.57C230.857 30.3672 231.229 29.9583 231.688 29.6562C232.151 29.3542 232.648 29.2031 233.18 29.2031Z" fill="#141414"/>
</svg>
